X:1
T:Zwölf Gesänge, Op.3
T:Kaeuzlein
T:8. Kaeuzlein
T:Louise Reichardt
T:Aus des Knaben Wunderhorn (eds. von Arnim and Brentano)
T:Zwölf Gesänge, Op.3
T:4. Mein Ast ist mir entwichen, Darauf ich ruhen sollt', Sein Blättlein all' verblichen, Frau Nachtigall geholt Das schafft der Eulen falsche Tück, Die störet all mein Glück.
T:OpenScore (CC0)
T:OpenScore (CC0)
C:Louise Reichardt
Z:Aus des Knaben Wunderhorn (eds. von Arnim and Brentano)
Z:OpenScore (CC0)
%%score 1 { 2 | 3 }
L:1/8
Q:1/4=110
M:6/8
K:Bb
V:1 treble nm="Voice"
V:2 treble nm="Piano"
V:3 bass 
V:1
"^Sanft klagend doch nicht zu langsam" G |: d2 d({cd)} e2 c | d3 B2 G | A2 A B2 A | A3 z2 D | %5
w: Ich|ar- mes Käuz- lein|klei- ne, wo|soll ich flie- gen|aus. bey|
 d2 d({cd)} e2 c | d3 B2 d | e2 d c2 f | d3 d c B | A2 c B2 G | ^F3 F G A | B3 A3 |1 G3 z2 G :|2 %13
w: Nacht so gar al-|lei- ne, bringt|mir so man- chen|Graus das macht der|Eu- len Un- ge-|stalt ihr Trau- ern|man- nig-|falt. Ich|
"^Schluss" (G2 z z2) |] %14
w: |
V:2
 z |: GBd Gce | GBd DGB | EGA =EGA | D^FA FAd | GBd Gce | GBd DGB | EGB EFA | DFB [Bd][Ac][GB] | %9
 AEc B=EG | ^FD=E [D^F][=EG][^FA] | DGB C^FA |1 B,DG DGB :|2 B,DG G, z |] %14
V:3
 z |: [G,B,D]3 [G,CE]3 | [G,B,D]3 B,3 | C3 ^C3 | D3 z2 z | [G,B,D]3 [G,CE]3 | [G,B,D]3 G,3 | %7
 C,3 =F,3 | B,,3 z2 z | C,3 ^C,3 | D,2 z z2 z | D,3 D,3 |1 G,,3 z2 z :|2 G,,3- G,, z |] %14

